{ "compressionlevel":-1,
 "height":15,
 "infinite":false,
 "layers":[
        {
         "draworder":"topdown",
         "id":3,
         "name":"background",
         "objects":[
                {
                 "gid":157,
                 "height":672.015294646874,
                 "id":2,
                 "name":"",
                 "rotation":0,
                 "type":"",
                 "visible":true,
                 "width":650.673864147549,
                 "x":2827.49707602339,
                 "y":692.226720647774
                }],
         "opacity":1,
         "type":"objectgroup",
         "visible":true,
         "x":0,
         "y":0
        }, 
        {
         "data":[0, 0, 0, 0, 0, 0, 0, 0, 0, 0, 0, 0, 0, 0, 0, 0, 0, 0, 0, 0, 0, 0, 0, 0, 0,
            0, 0, 0, 0, 0, 0, 0, 0, 0, 0, 0, 0, 0, 0, 0, 0, 0, 0, 0, 0, 0, 0, 0, 0, 0,
            0, 0, 0, 0, 0, 0, 7, 3, 16, 0, 0, 0, 0, 0, 0, 0, 0, 0, 0, 0, 0, 0, 0, 0, 0,
            4, 4, 4, 4, 4, 3, 5, 5, 0, 0, 111, 111, 111, 0, 0, 0, 0, 0, 0, 0, 0, 0, 0, 0, 0,
            5, 5, 5, 5, 5, 5, 5, 16, 0, 0, 0, 0, 0, 0, 0, 0, 0, 0, 0, 0, 0, 0, 0, 0, 0,
            5, 5, 5, 5, 5, 5, 5, 0, 0, 0, 0, 0, 0, 0, 0, 0, 0, 0, 0, 0, 0, 0, 0, 0, 0,
            5, 5, 5, 5, 5, 5, 16, 0, 0, 0, 0, 0, 0, 0, 0, 0, 0, 0, 0, 7, 1, 1, 1, 1, 1,
            5, 5, 16, 0, 0, 0, 0, 0, 0, 111, 111, 111, 111, 111, 0, 0, 0, 0, 15, 5, 5, 19, 19, 19, 19,
            0, 0, 0, 0, 0, 0, 0, 0, 0, 0, 0, 0, 0, 0, 0, 0, 0, 0, 0, 5, 5, 19, 19, 19, 19,
            0, 0, 0, 0, 0, 0, 0, 0, 0, 0, 0, 0, 0, 0, 0, 0, 0, 0, 0, 0, 5, 19, 19, 19, 19,
            0, 0, 0, 0, 0, 0, 7, 4, 4, 4, 4, 4, 4, 4, 4, 4, 16, 0, 0, 0, 5, 19, 19, 19, 19,
            2, 2, 2, 2, 0, 15, 19, 19, 19, 19, 19, 19, 19, 19, 19, 19, 0, 0, 0, 0, 5, 19, 19, 19, 19,
            19, 19, 19, 19, 0, 0, 19, 19, 19, 19, 19, 19, 19, 19, 19, 19, 0, 0, 0, 0, 0, 19, 19, 19, 19,
            19, 19, 19, 19, 0, 0, 19, 19, 19, 19, 19, 19, 19, 19, 19, 19, 0, 0, 0, 0, 0, 19, 19, 19, 19,
            19, 19, 19, 19, 0, 0, 19, 19, 19, 19, 19, 19, 19, 19, 19, 19, 0, 0, 0, 0, 0, 19, 19, 19, 19],
         "height":15,
         "id":1,
         "name":"ground",
         "opacity":1,
         "type":"tilelayer",
         "visible":true,
         "width":25,
         "x":0,
         "y":0
        }, 
        {
         "draworder":"topdown",
         "id":2,
         "name":"decor",
         "objects":[
                {
                 "gid":128,
                 "height":457.336932073774,
                 "id":1,
                 "name":"",
                 "rotation":0,
                 "type":"",
                 "visible":true,
                 "width":719.823661718399,
                 "x":2796.85829959514,
                 "y":844.671614934773
                }, 
                {
                 "gid":174,
                 "height":1050.54161043635,
                 "id":3,
                 "name":"",
                 "rotation":0,
                 "type":"",
                 "visible":true,
                 "width":1083.3918128655,
                 "x":1040.6252811516,
                 "y":1406.96221322537
                }],
         "opacity":1,
         "type":"objectgroup",
         "visible":true,
         "x":0,
         "y":0
        }, 
        {
         "draworder":"topdown",
         "id":4,
         "name":"obstacle",
         "objects":[
                {
                 "gid":67,
                 "height":454.88971300045,
                 "id":8,
                 "name":"",
                 "rotation":0,
                 "type":"",
                 "visible":true,
                 "width":454.88971300045,
                 "x":760.521855150698,
                 "y":977.008584795322
                }, 
                {
                 "gid":67,
                 "height":368.29530814215,
                 "id":10,
                 "name":"",
                 "rotation":0,
                 "type":"",
                 "visible":true,
                 "width":368.29530814215,
                 "x":193.720092217724,
                 "y":1173.8145591543
                }],
         "opacity":1,
         "type":"objectgroup",
         "visible":true,
         "x":0,
         "y":0
        }, 
        {
         "draworder":"topdown",
         "id":5,
         "name":"coin",
         "objects":[],
         "opacity":1,
         "type":"objectgroup",
         "visible":true,
         "x":0,
         "y":0
        }],
 "nextlayerid":6,
 "nextobjectid":11,
 "orientation":"orthogonal",
 "renderorder":"right-down",
 "tiledversion":"1.10.2",
 "tileheight":140,
 "tilesets":[
        {
         "firstgid":1,
         "source":"rd bs.json"
        }],
 "tilewidth":140,
 "type":"map",
 "version":"1.10",
 "width":25
}